X: 1
T: Tenpenny Bit, The
C: Trad
R: Jig
M: 6/8
L: 1/8
K: Ador
Z: ABC transcription by Verge Roller
r: 32
|: d | "Am" eAA eAA | "G" BAB GBd | "Am" eAA eAA | "G" def gfg |
"Am" eAA eAA | "G" BAB GBd | "Em" edB "G" gBB | "G" BAA "Am" A2 :|
|: d | "Am" eaa aga | "G" bge dBG | "Am" eaa aga | "G" bge g2 d |
"Am" eaa aga | "G" bab ged | "Em" edB "G" gBB | "G" BAA "Am" A2 :|
